X: 0832
T: LAND OF SWEET ERIN
B: Oliver Ditson "The Boston Collection of Instrumental Music" 1910 p.83 #2
F: http://conquest.imslp.info/files/imglnks/usimg/8/8f/IMSLP175643-PMLP309456-bostoncollection00bost_bw.pdf
%: 2012 John Chambers <jc:trillian.mit.edu>
M: 6/8
L: 1/8
K: Bb
G/A/ |\
BcB BFD | FGF FGA | BcB BFD | Ccc c2~d |\
BcB BFD | FGF F2f/e/ | dcd BFD | GBB B2 :|
|: F |\
Bdf fdB | Ace ecA | Bdf fdB | dff f2F |\
Bdf fdB | ABc cde | dcd BFD | GBB B2 :|

%%sep 1 1 500
%%sep 1 1 500
